apps/ledger-live-desktop/src/renderer/images/connect-device.svg

<svg width="120" height="120" viewBox="0 0 120 120" fill="none" xmlns="http://www.w3.org/2000/svg">
<mask id="mask0_19636_211993" style="mask-type:luminance" maskUnits="userSpaceOnUse" x="0" y="0" width="120" height="120">
<path d="M120 0H0V120H120V0Z" fill="white"/>
</mask>
<g mask="url(#mask0_19636_211993)">
<path d="M91.1243 60.2848C91.1243 77.5737 77.1088 91.5892 59.82 91.5892C42.5311 91.5892 28.5156 77.5737 28.5156 60.2848C28.5156 42.9959 42.5311 28.9805 59.82 28.9805C77.1088 28.9805 91.1243 42.9959 91.1243 60.2848Z" fill="#565656"/>
<g opacity="0.20887">
<path d="M112.068 60.284C112.068 89.1401 88.6752 112.533 59.8191 112.533C30.963 112.533 7.57031 89.1401 7.57031 60.284C7.57031 31.4278 30.963 8.03516 59.8191 8.03516C88.6752 8.03516 112.068 31.4278 112.068 60.284Z" fill="#565656"/>
</g>
<g opacity="0.498917">
<path d="M97.138 60.2858C97.138 80.8954 80.4305 97.6029 59.821 97.6029C39.2114 97.6029 22.5039 80.8954 22.5039 60.2858C22.5039 39.6762 39.2114 22.9688 59.821 22.9688C80.4305 22.9688 97.138 39.6762 97.138 60.2858Z" fill="#565656"/>
</g>
<path d="M59.7536 74.0264C61.5296 74.0264 62.9686 72.5875 62.9686 70.8115C62.9686 69.4644 62.1416 68.3317 60.9781 67.8417V64.9331L66.52 63.2181C67.4999 62.9118 68.1119 62.1167 68.1119 61.1369V56.7271H69.2446V52.4416H64.7748V56.7271H65.9686V61.0451C65.9686 61.1369 65.9075 61.1671 65.8157 61.1979L60.9781 62.6979V53.3593H63.1825L59.7536 47.6953L56.3247 53.3593H58.5291V64.6576L54.2117 63.2181C54.0588 63.1571 53.9978 63.1263 53.9978 62.9734V58.4729C54.8242 58.0748 55.3752 57.2171 55.3752 56.268C55.3752 54.9209 54.2733 53.819 52.9261 53.819C51.579 53.819 50.4766 54.9209 50.4766 56.268C50.4766 57.2171 51.028 58.0748 51.8545 58.4729V63.1576C51.8545 64.1374 52.467 64.9028 53.416 65.2085L58.5291 66.9235V67.8417C57.3656 68.3317 56.5386 69.4644 56.5386 70.8115C56.5386 72.5875 57.9776 74.0264 59.7536 74.0264Z" fill="white"/>
</g>
</svg>

<svg xmlns="http://www.w3.org/2000/svg" width="120" height="120" fill="none" viewBox="0 0 120 120"><mask id="a" width="120" height="120" x="0" y="0" maskUnits="userSpaceOnUse" style="mask-type:luminance"><path fill="#fff" d="M120 0H0v120h120z"/></mask><g mask="url(#a)"><path fill="#565656" d="M91.124 60.285c0 17.289-14.015 31.304-31.304 31.304S28.516 77.574 28.516 60.285c0-17.29 14.015-31.304 31.304-31.304s31.304 14.015 31.304 31.304"/><path fill="#565656" d="M112.068 60.284c0 28.856-23.393 52.249-52.249 52.249S7.57 89.14 7.57 60.284 30.963 8.035 59.82 8.035c28.855 0 52.248 23.393 52.248 52.249" opacity=".209"/><path fill="#565656" d="M97.138 60.286c0 20.61-16.708 37.317-37.317 37.317S22.504 80.895 22.504 60.286 39.21 22.969 59.82 22.969s37.317 16.707 37.317 37.317" opacity=".499"/><path fill="#fff" d="M59.754 74.026a3.214 3.214 0 0 0 3.215-3.215c0-1.347-.827-2.48-1.99-2.97v-2.908l5.541-1.715c.98-.306 1.592-1.101 1.592-2.081v-4.41h1.133v-4.285h-4.47v4.285h1.194v4.318c0 .092-.061.122-.153.153l-4.838 1.5v-9.339h2.204l-3.428-5.664-3.43 5.664h2.205v11.299l-4.317-1.44c-.153-.06-.214-.092-.214-.245v-4.5a2.46 2.46 0 0 0 1.377-2.205 2.456 2.456 0 0 0-2.449-2.449 2.456 2.456 0 0 0-2.45 2.449c0 .95.552 1.807 1.379 2.205v4.685c0 .98.612 1.745 1.561 2.05l5.113 1.716v.918c-1.163.49-1.99 1.622-1.99 2.97a3.214 3.214 0 0 0 3.215 3.214"/></g></svg>
